public/front/assets/imgs/theme/icons/icon-cart.svg

<svg width="25" height="25" viewBox="0 0 25 25" fill="none" xmlns="http://www.w3.org/2000/svg">
<g clip-path="url(#clip0)">
<path d="M24.4941 3.36652H4.73614L4.69414 3.01552C4.60819 2.28593 4.25753 1.61325 3.70863 1.12499C3.15974 0.636739 2.45077 0.366858 1.71614 0.366516L0.494141 0.366516V2.36652H1.71614C1.96107 2.36655 2.19748 2.45647 2.38051 2.61923C2.56355 2.78199 2.68048 3.00626 2.70914 3.24952L4.29414 16.7175C4.38009 17.4471 4.73076 18.1198 5.27965 18.608C5.82855 19.0963 6.53751 19.3662 7.27214 19.3665H20.4941V17.3665H7.27214C7.02705 17.3665 6.79052 17.2764 6.60747 17.1134C6.42441 16.9505 6.30757 16.7259 6.27914 16.4825L6.14814 15.3665H22.3301L24.4941 3.36652ZM20.6581 13.3665H5.91314L4.97214 5.36652H22.1011L20.6581 13.3665Z" fill="#253D4E"/>
<path d="M7.49414 24.3665C8.59871 24.3665 9.49414 23.4711 9.49414 22.3665C9.49414 21.2619 8.59871 20.3665 7.49414 20.3665C6.38957 20.3665 5.49414 21.2619 5.49414 22.3665C5.49414 23.4711 6.38957 24.3665 7.49414 24.3665Z" fill="#253D4E"/>
<path d="M17.4941 24.3665C18.5987 24.3665 19.4941 23.4711 19.4941 22.3665C19.4941 21.2619 18.5987 20.3665 17.4941 20.3665C16.3896 20.3665 15.4941 21.2619 15.4941 22.3665C15.4941 23.4711 16.3896 24.3665 17.4941 24.3665Z" fill="#253D4E"/>
</g>
<defs>
<clipPath id="clip0">
<rect width="24" height="24" fill="white" transform="translate(0.494141 0.366516)"/>
</clipPath>
</defs>
</svg>

<?xml version="1.0" encoding="utf-8"?>
<!-- Generator: Adobe Illustrator 28.1.0, SVG Export Plug-In . SVG Version: 6.00 Build 0)  -->
<svg version="1.1" id="Layer_1" xmlns="http://www.w3.org/2000/svg" xmlns:xlink="http://www.w3.org/1999/xlink" x="0px" y="0px"
	 viewBox="0 0 25 25" style="enable-background:new 0 0 25 25;" xml:space="preserve">
<style type="text/css">
	.st0{clip-path:url(#SVGID_00000129907344694343679760000009647805453017257886_);}
	.st1{fill:#FFFFFF;}
</style>
<g>
	<defs>
		<rect id="SVGID_1_" x="0.5" y="0.4" width="24" height="24"/>
	</defs>
	<clipPath id="SVGID_00000055669253281050460520000002975452125530748077_">
		<use xlink:href="#SVGID_1_"  style="overflow:visible;"/>
	</clipPath>
	<g style="clip-path:url(#SVGID_00000055669253281050460520000002975452125530748077_);">
		<path class="st1" d="M24.5,3.4H4.7l0-0.4c-0.1-0.7-0.4-1.4-1-1.9c-0.5-0.5-1.3-0.8-2-0.8H0.5v2h1.2c0.2,0,0.5,0.1,0.7,0.3
			C2.6,2.8,2.7,3,2.7,3.2l1.6,13.5c0.1,0.7,0.4,1.4,1,1.9c0.5,0.5,1.3,0.8,2,0.8h13.2v-2H7.3c-0.2,0-0.5-0.1-0.7-0.3
			c-0.2-0.2-0.3-0.4-0.3-0.6l-0.1-1.1h16.2L24.5,3.4z M20.7,13.4H5.9L5,5.4h17.1L20.7,13.4z"/>
		<path class="st1" d="M7.5,24.4c1.1,0,2-0.9,2-2c0-1.1-0.9-2-2-2s-2,0.9-2,2C5.5,23.5,6.4,24.4,7.5,24.4z"/>
		<path class="st1" d="M17.5,24.4c1.1,0,2-0.9,2-2c0-1.1-0.9-2-2-2c-1.1,0-2,0.9-2,2C15.5,23.5,16.4,24.4,17.5,24.4z"/>
	</g>
</g>
</svg>
